X:1
T:Uncle Tom's Best -- Jig
R:reel
B:Ryan's Mammoth Collection
N: 117 660
Z: Contributed by Ray Davies,  ray:davies99.freeserve.co.uk
M:C|
L:1/8
K:G
uD"^Segno"|\
vGBdf gbzub | afge dBzuc | DFAB cez"4"ue | dBcA G2zuD |
GBdf gbzb | afge dBzc | DFAB cez"4"e | dBcA G2z H|]
uD|\
vG2BG "4"AGE2 | G2BG F"4"AzuD | vG2BG "4"AGzuf |\
vgedc BG"4"AF |
G2cA B"4"AE2 | G2BG F"4"AzuD | G2BG "4"AGzuf |\
 gfaf gedB "^Segno""_D.S."|]
